tools/download-figma-icons/icons/outlined-large/battery-active.svg

<svg width="64" height="64" viewBox="0 0 64 64" fill="none" xmlns="http://www.w3.org/2000/svg">
<path fill-rule="evenodd" clip-rule="evenodd" d="M46.5 61C47.879 61 49 59.879 49 58.5V11.5C49 10.121 47.879 9 46.5 9H41V3.5C41 3.225 40.775 3 40.5 3H23.5C23.225 3 23 3.225 23 3.5V9H17.5C16.121 9 15 10.121 15 11.5V58.5C15 59.879 16.121 61 17.5 61H46.5ZM44 6H46.5C49.532 6 52 8.468 52 11.5V58.5C52 61.532 49.532 64 46.5 64H17.5C14.468 64 12 61.532 12 58.5V11.5C12 8.468 14.468 6 17.5 6H20V3.5C20 1.57 21.57 0 23.5 0H40.5C42.43 0 44 1.57 44 3.5V6ZM32 38.5002V47.9912L41.534 33.0002H33.5C32.672 33.0002 32 32.3282 32 31.5002V22.0092L22.466 37.0002H30.5C31.328 37.0002 32 37.6722 32 38.5002ZM35 30.0002H42.392C43.393 30.0002 44.286 30.5062 44.723 31.3212C45.144 32.1052 45.083 33.0442 44.561 33.8302L33.766 50.8042C33.257 51.5702 32.442 51.9972 31.591 51.9972C31.343 51.9972 31.091 51.9602 30.843 51.8862C29.74 51.5522 29 50.5482 29 49.3862V40.0002H21.608C20.607 40.0002 19.714 39.4942 19.277 38.6782C18.856 37.8942 18.917 36.9562 19.439 36.1702L30.234 19.1952C30.892 18.2072 32.058 17.7862 33.157 18.1142C34.26 18.4482 35 19.4522 35 20.6142V30.0002Z" fill="black"/>
</svg>

<svg width="64" height="64" viewBox="0 0 64 64" fill="none" xmlns="http://www.w3.org/2000/svg"><path fill-rule="evenodd" clip-rule="evenodd" d="M46.5 61c1.379 0 2.5-1.121 2.5-2.5v-47c0-1.379-1.121-2.5-2.5-2.5H41V3.5c0-.275-.225-.5-.5-.5h-17c-.275 0-.5.225-.5.5V9h-5.5a2.502 2.502 0 0 0-2.5 2.5v47c0 1.379 1.121 2.5 2.5 2.5h29ZM44 6h2.5c3.032 0 5.5 2.468 5.5 5.5v47c0 3.032-2.468 5.5-5.5 5.5h-29a5.507 5.507 0 0 1-5.5-5.5v-47C12 8.468 14.468 6 17.5 6H20V3.5C20 1.57 21.57 0 23.5 0h17C42.43 0 44 1.57 44 3.5V6ZM32 38.5v9.491l9.534-14.99H33.5a1.5 1.5 0 0 1-1.5-1.5v-9.492L22.466 37H30.5a1.5 1.5 0 0 1 1.5 1.5Zm3-8.5h7.392c1.001 0 1.894.506 2.331 1.321.421.784.36 1.723-.162 2.51L33.766 50.803c-.509.766-1.324 1.193-2.175 1.193A2.59 2.59 0 0 1 29 49.386V40h-7.392c-1.001 0-1.894-.506-2.331-1.322-.421-.784-.36-1.722.162-2.508l10.795-16.975c.658-.988 1.824-1.409 2.923-1.08a2.59 2.59 0 0 1 1.843 2.5V30Z" fill="currentColor"/></svg>
